X:1
T:Johnny Randall
M:3/4
L:1/4
K:C
 d| d B d| g2 d/2d/2| e d e| G2 G| B A G| B d B| A B A| G2 G| B A G|\
 B d B| A B A| G2 G/2G/2| B A G| d2 B/2B/2| A B A| G2||
